dist/images/ico/side_menu01.svg

<svg width="28" height="28" viewBox="0 0 28 28" fill="none" xmlns="http://www.w3.org/2000/svg">
<path d="M14.6338 20.4887H6.78489C6.3532 20.4887 6 20.8287 6 21.2443C6 21.66 6.3532 22 6.78489 22H14.6338C15.0655 22 15.4187 21.66 15.4187 21.2443C15.4187 20.8287 15.0655 20.4887 14.6338 20.4887Z" fill="white" fill-opacity="0.6"/>
<path d="M11.5492 8.57961L9.32794 10.7181L19.3196 20.3376C19.9318 20.927 20.9286 20.927 21.5408 20.3376C22.1531 19.7482 22.1531 18.7885 21.5408 18.1991L11.5492 8.57961Z" fill="white" fill-opacity="0.6"/>
<path d="M18.2129 8.57961L15.9917 6.44112C15.3794 5.85171 14.3826 5.85171 13.7704 6.44867L12.6637 7.51414L17.0984 11.7911L18.2129 10.7181C18.8251 10.1287 18.8251 9.16902 18.2129 8.57961Z" fill="white" fill-opacity="0.6"/>
<path d="M12.6637 16.0606L8.22124 11.7836L7.11455 12.849C6.50233 13.4385 6.50233 14.3981 7.11455 14.9875L9.33579 17.126C9.948 17.7155 10.9448 17.7155 11.557 17.126L12.6637 16.0606Z" fill="white" fill-opacity="0.6"/>
</svg>

<svg width="28" height="28" fill="none" xmlns="http://www.w3.org/2000/svg"><path d="M14.634 20.489h-7.85c-.43 0-.784.34-.784.755 0 .416.353.756.785.756h7.849c.431 0 .785-.34.785-.756 0-.415-.354-.755-.785-.755zM11.55 8.58l-2.222 2.138 9.992 9.62a1.615 1.615 0 002.22 0c.613-.59.613-1.55 0-2.139l-9.99-9.62zm6.663 0l-2.221-2.14a1.609 1.609 0 00-2.222.008l-1.106 1.065 4.434 4.277 1.115-1.073a1.474 1.474 0 000-2.138zm-5.549 7.48L8.22 11.785 7.114 12.85a1.475 1.475 0 000 2.139l2.22 2.138c.613.59 1.61.59 2.222 0l1.107-1.065z" fill="#fff" fill-opacity=".6"/></svg>
